; G-Code generated by Simplify3D(R) Version 4.1.2
; Dec 26, 2021 at 6:33:02 PM
; Settings Summary
;   processName,PLA 0.2
;   applyToModels,border-lateral-3-left,ramp-left-body,ramp-left-body-motor-cover
;   profileName,PLA 0.2 profile (modified)
;   profileVersion,2018-10-07 03:45:03
;   baseProfile,pla 0.25 (modified)
;   printMaterial,PLA
;   printQuality,Medium
;   printExtruders,
;   extruderName,Extruder 1
;   extruderToolheadNumber,0
;   extruderDiameter,0.6
;   extruderAutoWidth,0
;   extruderWidth,0.55
;   extrusionMultiplier,0.95
;   extruderUseRetract,1
;   extruderRetractionDistance,1
;   extruderExtraRestartDistance,0
;   extruderRetractionZLift,0
;   extruderRetractionSpeed,1800
;   extruderUseCoasting,0
;   extruderCoastingDistance,0.2
;   extruderUseWipe,0
;   extruderWipeDistance,2
;   primaryExtruder,0
;   layerHeight,0.2
;   topSolidLayers,5
;   bottomSolidLayers,5
;   perimeterOutlines,3
;   printPerimetersInsideOut,1
;   startPointOption,2
;   startPointOriginX,0
;   startPointOriginY,0
;   sequentialIslands,0
;   spiralVaseMode,0
;   firstLayerHeightPercentage,100
;   firstLayerWidthPercentage,100
;   firstLayerUnderspeed,0.6
;   useRaft,0
;   raftExtruder,0
;   raftTopLayers,3
;   raftBaseLayers,2
;   raftOffset,3
;   raftSeparationDistance,0.1
;   raftTopInfill,100
;   aboveRaftSpeedMultiplier,0.3
;   useSkirt,1
;   skirtExtruder,0
;   skirtLayers,1
;   skirtOutlines,1
;   skirtOffset,3
;   usePrimePillar,0
;   primePillarExtruder,999
;   primePillarWidth,12
;   primePillarLocation,7
;   primePillarSpeedMultiplier,1
;   useOozeShield,0
;   oozeShieldExtruder,999
;   oozeShieldOffset,2
;   oozeShieldOutlines,1
;   oozeShieldSidewallShape,1
;   oozeShieldSidewallAngle,30
;   oozeShieldSpeedMultiplier,1
;   infillExtruder,0
;   internalInfillPattern,Triangular
;   externalInfillPattern,Rectilinear
;   infillPercentage,40
;   outlineOverlapPercentage,21
;   infillExtrusionWidthPercentage,100
;   minInfillLength,0.05
;   infillLayerInterval,1
;   internalInfillAngles,0,60,-60
;   overlapInternalInfillAngles,1
;   externalInfillAngles,-45,45
;   generateSupport,1
;   supportExtruder,0
;   supportInfillPercentage,25
;   supportExtraInflation,1
;   supportBaseLayers,0
;   denseSupportExtruder,0
;   denseSupportLayers,3
;   denseSupportInfillPercentage,75
;   supportLayerInterval,1
;   supportHorizontalPartOffset,0.75
;   supportUpperSeparationLayers,1
;   supportLowerSeparationLayers,1
;   supportType,0
;   supportGridSpacing,4
;   maxOverhangAngle,80
;   supportAngles,45
;   temperatureName,Extruder,Bed
;   temperatureNumber,0,0
;   temperatureSetpointCount,1,2
;   temperatureSetpointLayers,1,1,2
;   temperatureSetpointTemperatures,200,50,0
;   temperatureStabilizeAtStartup,1,1
;   temperatureHeatedBed,0,1
;   fanLayers,1,2
;   fanSpeeds,0,100
;   blipFanToFullPower,0
;   adjustSpeedForCooling,1
;   minSpeedLayerTime,15
;   minCoolingSpeedSlowdown,40
;   increaseFanForCooling,0
;   minFanLayerTime,45
;   maxCoolingFanSpeed,100
;   increaseFanForBridging,0
;   bridgingFanSpeed,100
;   use5D,1
;   relativeEdistances,1
;   allowEaxisZeroing,1
;   independentExtruderAxes,0
;   includeM10123,0
;   stickySupport,1
;   applyToolheadOffsets,0
;   gcodeXoffset,0
;   gcodeYoffset,0
;   gcodeZoffset,0
;   overrideMachineDefinition,1
;   machineTypeOverride,0
;   strokeXoverride,190
;   strokeYoverride,190
;   strokeZoverride,175
;   originOffsetXoverride,0
;   originOffsetYoverride,0
;   originOffsetZoverride,0
;   homeXdirOverride,-1
;   homeYdirOverride,-1
;   homeZdirOverride,-1
;   flipXoverride,1
;   flipYoverride,-1
;   flipZoverride,1
;   toolheadOffsets,0,0|0,0|0,0|0,0|0,0|0,0
;   overrideFirmwareConfiguration,1
;   firmwareTypeOverride,RepRap (Marlin/Repetier/Sprinter)
;   GPXconfigOverride,r2
;   baudRateOverride,250000
;   overridePrinterModels,0
;   printerModelsOverride
;   startingGcode,G28 ; home all,M420 S1 ; Enable Bed leveling,G92 E0,G1 Z0.2 F1000,G1 X8.0 F2000,G1 Y60.0 E4.0 F1000.0 ; prime,G1 Y100.0 E8.5 F1000.0 ; prime,G92 E0
;   layerChangeGcode,
;   retractionGcode,
;   toolChangeGcode,
;   endingGcode,M104 S0 ; turn off extruder,M140 S0 ; turn off bed,G91 ; use relative coordinates,G1 Z0.6 F5000 ; lift nozzle by 0.6mm,G90 ; use absolute coordinates,G28 X0 ; home X axis,G1 Y195 ; move Y axis to end position,M84 ; disable motors,M107 ; turn off fan
;   exportFileFormat,gcode
;   celebration,0
;   celebrationSong,Random Song
;   postProcessing,
;   defaultSpeed,3000
;   outlineUnderspeed,0.8
;   solidInfillUnderspeed,1
;   supportUnderspeed,0.8
;   rapidXYspeed,7200
;   rapidZspeed,900
;   minBridgingArea,50
;   bridgingExtraInflation,0
;   bridgingExtrusionMultiplier,1
;   bridgingSpeedMultiplier,1
;   useFixedBridgingAngle,0
;   fixedBridgingAngle,0
;   applyBridgingToPerimeters,0
;   filamentDiameters,1.72|1.72|1.72|1.72|1.72|1.72
;   filamentPricesPerKg,30|42|42|42|42|42
;   filamentDensities,1.25|1.25|1.25|1.25|1.25|1.25
;   useMinPrintHeight,0
;   minPrintHeight,3.5
;   useMaxPrintHeight,0
;   maxPrintHeight,200
;   useDiaphragm,0
;   diaphragmLayerInterval,20
;   robustSlicing,1
;   mergeAllIntoSolid,0
;   onlyRetractWhenCrossingOutline,0
;   retractBetweenLayers,1
;   useRetractionMinTravel,1
;   retractionMinTravel,3
;   retractWhileWiping,1
;   onlyWipeOutlines,1
;   avoidCrossingOutline,1
;   maxMovementDetourFactor,10
;   toolChangeRetractionDistance,12
;   toolChangeExtraRestartDistance,-0.5
;   toolChangeRetractionSpeed,600
;   externalThinWallType,0
;   internalThinWallType,1
;   thinWallAllowedOverlapPercentage,20
;   singleExtrusionMinLength,1
;   singleExtrusionMinPrintingWidthPercentage,50
;   singleExtrusionMaxPrintingWidthPercentage,200
;   singleExtrusionEndpointExtension,0.2
;   horizontalSizeCompensation,0
G90
M83
M106 S0
M140 S50
M190 S50
M104 S200 T0
M109 S200 T0
G28 ; home all
M420 S1 ; Enable Bed leveling
G92 E0
G1 Z0.2 F1000
G1 X8.0 F2000
G1 Y60.0 E4.0 F1000.0 ; prime
G1 Y100.0 E8.5 F1000.0 ; prime
G92 E0
; process PLA 0.2
; layer 1, Z = 0.200
T0
G1 E-1.0000 F1800
; feature skirt
; tool H0.200 W0.550
G1 Z0.200 F900
G1 X20.411 Y30.726 F7200
G1 E1.0000 F1800
G1 X167.865 Y30.726 E6.6317 F1800
G1 X169.783 Y32.644 E0.1220
G1 X169.783 Y50.157 E0.7876
G1 X167.865 Y52.076 E0.1220
G1 X164.774 Y52.076 E0.1390
G1 X164.774 Y63.526 E0.5150
G1 X167.865 Y63.526 E0.1390
G1 X169.783 Y65.444 E0.1220
G1 X169.783 Y82.957 E0.7876
G1 X167.865 Y84.876 E0.1220
G1 X20.411 Y84.876 E6.6317
G1 X18.493 Y82.957 E0.1220
G1 X18.493 Y32.644 E2.2628
G1 X20.411 Y30.726 E0.1220
G1 E-1.0000 F1800
G1 X22.043 Y34.276 F7200
G1 X22.793 Y34.276
G1 X57.058 Y85.337
G1 E1.0000 F1800
G1 X112.021 Y85.337 E2.4720 F1800
G1 X113.939 Y87.256 E0.1220
G1 X113.939 Y101.969 E0.6617
G1 X112.021 Y103.887 E0.1220
G1 X57.058 Y103.887 E2.4720
G1 X55.139 Y101.969 E0.1220
G1 X55.139 Y87.256 E0.6617
G1 X57.058 Y85.337 E0.1220
G1 E-1.0000 F1800
G1 X36.744 Y105.399 F7200
G1 E1.0000 F1800
G1 X38.634 Y107.644 E0.1320 F1800
G1 X40.092 Y109.153 E0.0944
G1 X41.649 Y110.558 E0.0944
G1 X43.299 Y111.855 E0.0944
G1 X45.034 Y113.035 E0.0944
G1 X46.869 Y114.109 E0.0956
G1 X47.751 Y114.566 E0.0447
G1 X49.686 Y115.446 E0.0956
G1 X51.651 Y116.183 E0.0944
G1 X53.661 Y116.783 E0.0944
G1 X55.735 Y117.252 E0.0956
G1 X56.714 Y117.420 E0.0447
G1 X58.825 Y117.674 E0.0956
G1 X60.920 Y117.781 E0.0944
G1 X63.018 Y117.746 E0.0944
G1 X65.137 Y117.564 E0.0956
G1 X66.121 Y117.429 E0.0447
G1 X68.237 Y117.027 E0.0969
G1 X69.202 Y116.791 E0.0447
G1 X71.239 Y116.183 E0.0956
G1 X73.230 Y115.437 E0.0956
G1 X74.141 Y115.041 E0.0447
G1 X76.045 Y114.095 E0.0956
G1 X77.880 Y113.021 E0.0956
G1 X78.734 Y112.461 E0.0459
G1 X79.569 Y111.872 E0.0459
G1 X81.262 Y110.541 E0.0969
G1 X82.011 Y109.888 E0.0447
G1 X83.540 Y108.411 E0.0956
G1 X84.964 Y106.832 E0.0956
G1 X86.110 Y105.423 E0.0817
G1 X87.445 Y104.788 E0.0665
G1 X109.926 Y104.788 E1.0111
G1 X169.756 Y85.343 E2.8294
G1 X170.432 Y85.270 E0.0306
G1 X178.249 Y86.052 E0.3533
G1 X178.408 Y86.076 E0.0072
G1 X179.412 Y86.277 E0.0461
G1 X179.720 Y86.371 E0.0145
G1 X180.740 Y86.795 E0.0497
G1 X181.023 Y86.946 E0.0145
G1 X181.908 Y87.539 E0.0479
G1 X182.098 Y87.687 E0.0108
G1 X182.566 Y88.113 E0.0285
G1 X182.732 Y88.287 E0.0108
G1 X183.382 Y89.080 E0.0461
G1 X183.520 Y89.277 E0.0108
G1 X183.845 Y89.820 E0.0285
G1 X183.954 Y90.035 E0.0108
G1 X184.361 Y91.019 E0.0479
G1 X184.454 Y91.327 E0.0145
G1 X184.669 Y92.407 E0.0495
G1 X184.700 Y92.719 E0.0141
G1 X184.720 Y97.091 E0.1966
G1 X184.718 Y97.178 E0.0039
G1 X184.692 Y97.725 E0.0246
G1 X184.663 Y97.960 E0.0107
G1 X184.470 Y98.950 E0.0453
G1 X184.408 Y99.178 E0.0107
G1 X184.201 Y99.766 E0.0280
G1 X184.107 Y99.984 E0.0107
G1 X183.621 Y100.911 E0.0471
G1 X183.448 Y101.176 E0.0142
G1 X182.768 Y102.025 E0.0489
G1 X182.547 Y102.251 E0.0142
G1 X181.718 Y102.953 E0.0489
G1 X181.458 Y103.134 E0.0142
G1 X180.508 Y103.664 E0.0489
G1 X180.219 Y103.790 E0.0142
G1 X161.876 Y109.795 E0.8681
G1 X161.371 Y109.430 E0.0280
G1 X112.243 Y125.396 E2.3233
G1 X111.802 Y125.838 E0.0281
G1 X12.088 Y125.838 E4.4846
G1 X10.170 Y123.919 E0.1220
G1 X10.170 Y106.706 E0.7742
G1 X12.088 Y104.788 E0.1220
G1 X35.430 Y104.788 E1.0498
G1 X36.744 Y105.399 E0.0652
G1 E-1.0000 F1800
; feature inner perimeter
G1 X23.143 Y80.226 F7200
G1 E1.0000 F1800
G1 X23.143 Y35.376 E2.0171 F1620
G1 X165.133 Y35.376 E6.3860
G1 X165.133 Y47.426 E0.5419
G1 X160.124 Y47.426 E0.2253
G1 X160.124 Y68.176 E0.9332
G1 X165.133 Y68.176 E0.2253
G1 X165.133 Y80.226 E0.5419
G1 X23.143 Y80.226 E6.3860
G1 X22.593 Y80.776 F7200
G1 X22.593 Y34.826 E2.0666 F1620
G1 X165.683 Y34.826 E6.4355
G1 X165.683 Y47.976 E0.5914
G1 X160.674 Y47.976 E0.2253
G1 X160.674 Y67.626 E0.8838
G1 X165.683 Y67.626 E0.2253
G1 X165.683 Y80.776 E0.5914
G1 X22.593 Y80.776 E6.4355
; feature outer perimeter
G1 X22.043 Y81.326 F7200
G1 X22.043 Y34.276 E2.1161 F1440
G1 X166.233 Y34.276 E6.4849
G1 X166.233 Y48.526 E0.6409
G1 X161.224 Y48.526 E0.2253
G1 X161.224 Y67.076 E0.8343
G1 X166.233 Y67.076 E0.2253
G1 X166.233 Y81.326 E0.6409
G1 X22.043 Y81.326 E6.4849
G1 E-1.0000 F1800
; feature solid layer
G1 X23.577 Y36.505 F7200
G1 E1.0000 F1800
G1 X24.272 Y35.810 E0.0442 F1800
G1 X25.050 Y35.810 E0.0350
G1 X23.577 Y37.283 E0.0936
G1 X23.577 Y38.060 E0.0350
G1 X25.827 Y35.810 E0.1431
G1 X26.605 Y35.810 E0.0350
G1 X23.577 Y38.838 E0.1926
G1 X23.577 Y39.616 E0.0350
G1 X27.383 Y35.810 E0.2421
G1 X28.161 Y35.810 E0.0350
G1 X23.577 Y40.394 E0.2915
G1 X23.577 Y41.172 E0.0350
G1 X28.939 Y35.810 E0.3410
G1 X29.716 Y35.810 E0.0350
G1 X23.577 Y41.949 E0.3905
G1 X23.577 Y42.727 E0.0350
G1 X30.494 Y35.810 E0.4400
G1 X31.272 Y35.810 E0.0350
G1 X23.577 Y43.505 E0.4894
G1 X23.577 Y44.283 E0.0350
G1 X32.050 Y35.810 E0.5389
G1 X32.828 Y35.810 E0.0350
G1 X23.577 Y45.061 E0.5884
G1 X23.577 Y45.839 E0.0350
G1 X33.606 Y35.810 E0.6378
G1 X34.383 Y35.810 E0.0350
G1 X23.577 Y46.616 E0.6873
G1 X23.577 Y47.394 E0.0350
G1 X35.161 Y35.810 E0.7368
G1 X35.939 Y35.810 E0.0350
G1 X23.577 Y48.172 E0.7863
G1 X23.577 Y48.950 E0.0350
G1 X36.717 Y35.810 E0.8357
G1 X37.495 Y35.810 E0.0350
G1 X23.577 Y49.728 E0.8852
G1 X23.577 Y50.505 E0.0350
G1 X38.272 Y35.810 E0.9347
G1 X39.050 Y35.810 E0.0350
G1 X23.577 Y51.283 E0.9841
G1 X23.577 Y52.061 E0.0350
G1 X39.828 Y35.810 E1.0336
G1 X40.606 Y35.810 E0.0350
G1 X23.577 Y52.839 E1.0831
G1 X23.577 Y53.617 E0.0350
G1 X41.384 Y35.810 E1.1326
G1 X42.162 Y35.810 E0.0350
G1 X23.577 Y54.395 E1.1820
G1 X23.577 Y55.172 E0.0350
G1 X42.939 Y35.810 E1.2315
G1 X43.717 Y35.810 E0.0350
G1 X23.577 Y55.950 E1.2810
G1 X23.577 Y56.728 E0.0350
G1 X44.495 Y35.810 E1.3305
G1 X45.273 Y35.810 E0.0350
G1 X23.577 Y57.506 E1.3799
G1 X23.577 Y58.284 E0.0350
G1 X46.051 Y35.810 E1.4294
G1 X46.828 Y35.810 E0.0350
G1 X23.577 Y59.061 E1.4789
G1 X23.577 Y59.839 E0.0350
G1 X47.606 Y35.810 E1.5283
G1 X48.384 Y35.810 E0.0350
G1 X23.577 Y60.617 E1.5778
G1 X23.577 Y61.395 E0.0350
G1 X49.162 Y35.810 E1.6273
G1 X49.940 Y35.810 E0.0350
G1 X23.577 Y62.173 E1.6768
G1 X23.577 Y62.951 E0.0350
G1 X50.718 Y35.810 E1.7262
G1 X51.495 Y35.810 E0.0350
G1 X23.577 Y63.728 E1.7757
G1 X23.577 Y64.506 E0.0350
G1 X52.273 Y35.810 E1.8252
G1 X53.051 Y35.810 E0.0350
G1 X23.577 Y65.284 E1.8746
G1 X23.577 Y66.062 E0.0350
G1 X53.829 Y35.810 E1.9241
G1 X54.607 Y35.810 E0.0350
G1 X23.577 Y66.840 E1.9736
G1 X23.577 Y67.617 E0.0350
G1 X55.384 Y35.810 E2.0231
G1 X56.162 Y35.810 E0.0350
G1 X23.577 Y68.395 E2.0725
G1 X23.577 Y69.173 E0.0350
G1 X56.940 Y35.810 E2.1220
G1 X57.718 Y35.810 E0.0350
G1 X23.577 Y69.951 E2.1715
G1 X23.577 Y70.729 E0.0350
G1 X58.496 Y35.810 E2.2210
G1 X59.274 Y35.810 E0.0350
G1 X23.577 Y71.506 E2.2704
G1 X23.577 Y72.284 E0.0350
G1 X60.051 Y35.810 E2.3199
G1 X60.829 Y35.810 E0.0350
G1 X23.577 Y73.062 E2.3694
G1 X23.577 Y73.840 E0.0350
G1 X61.607 Y35.810 E2.4188
G1 X62.385 Y35.810 E0.0350
G1 X23.577 Y74.618 E2.4683
G1 X23.577 Y75.396 E0.0350
G1 X63.163 Y35.810 E2.5178
G1 X63.940 Y35.810 E0.0350
G1 X23.577 Y76.173 E2.5673
G1 X23.577 Y76.951 E0.0350
G1 X64.718 Y35.810 E2.6167
G1 X65.496 Y35.810 E0.0350
G1 X23.577 Y77.729 E2.6662
G1 X23.577 Y78.507 E0.0350
G1 X66.274 Y35.810 E2.7157
G1 X67.052 Y35.810 E0.0350
G1 X23.577 Y79.285 E2.7652
G1 X23.577 Y79.791 E0.0228
G1 X23.849 Y79.791 E0.0122
G1 X67.830 Y35.810 E2.7974
G1 X68.607 Y35.810 E0.0350
G1 X24.626 Y79.791 E2.7974
G1 X25.404 Y79.791 E0.0350
G1 X69.385 Y35.810 E2.7974
G1 X70.163 Y35.810 E0.0350
G1 X26.182 Y79.791 E2.7974
G1 X26.960 Y79.791 E0.0350
G1 X70.941 Y35.810 E2.7974
G1 X71.719 Y35.810 E0.0350
G1 X27.738 Y79.791 E2.7974
G1 X28.515 Y79.791 E0.0350
G1 X72.496 Y35.810 E2.7974
G1 X73.274 Y35.810 E0.0350
G1 X29.293 Y79.791 E2.7974
G1 X30.071 Y79.791 E0.0350
G1 X74.052 Y35.810 E2.7974
G1 X74.830 Y35.810 E0.0350
G1 X30.849 Y79.791 E2.7974
G1 X31.627 Y79.791 E0.0350
G1 X75.608 Y35.810 E2.7974
G1 X76.386 Y35.810 E0.0350
G1 X32.405 Y79.791 E2.7974
G1 X33.182 Y79.791 E0.0350
G1 X77.163 Y35.810 E2.7974
G1 X77.941 Y35.810 E0.0350
G1 X33.960 Y79.791 E2.7974
G1 X34.738 Y79.791 E0.0350
G1 X78.719 Y35.810 E2.7974
G1 X79.497 Y35.810 E0.0350
G1 X35.516 Y79.791 E2.7974
G1 X36.294 Y79.791 E0.0350
G1 X80.275 Y35.810 E2.7974
G1 X81.052 Y35.810 E0.0350
G1 X37.071 Y79.791 E2.7974
G1 X37.849 Y79.791 E0.0350
G1 X81.830 Y35.810 E2.7974
G1 X82.608 Y35.810 E0.0350
G1 X38.627 Y79.791 E2.7974
G1 X39.405 Y79.791 E0.0350
G1 X83.386 Y35.810 E2.7974
G1 X84.164 Y35.810 E0.0350
G1 X40.183 Y79.791 E2.7974
G1 X40.961 Y79.791 E0.0350
G1 X84.942 Y35.810 E2.7974
G1 X85.719 Y35.810 E0.0350
G1 X41.738 Y79.791 E2.7974
G1 X42.516 Y79.791 E0.0350
G1 X86.497 Y35.810 E2.7974
G1 X87.275 Y35.810 E0.0350
G1 X43.294 Y79.791 E2.7974
G1 X44.072 Y79.791 E0.0350
G1 X88.053 Y35.810 E2.7974
G1 X88.831 Y35.810 E0.0350
G1 X44.850 Y79.791 E2.7974
G1 X45.627 Y79.791 E0.0350
G1 X89.608 Y35.810 E2.7974
G1 X90.386 Y35.810 E0.0350
G1 X46.405 Y79.791 E2.7974
G1 X47.183 Y79.791 E0.0350
G1 X91.164 Y35.810 E2.7974
G1 X91.942 Y35.810 E0.0350
G1 X47.961 Y79.791 E2.7974
G1 X48.739 Y79.791 E0.0350
G1 X92.720 Y35.810 E2.7974
G1 X93.497 Y35.810 E0.0350
G1 X49.516 Y79.791 E2.7974
G1 X50.294 Y79.791 E0.0350
G1 X94.275 Y35.810 E2.7974
G1 X95.053 Y35.810 E0.0350
G1 X51.072 Y79.791 E2.7974
G1 X51.850 Y79.791 E0.0350
G1 X95.831 Y35.810 E2.7974
G1 X96.609 Y35.810 E0.0350
G1 X52.628 Y79.791 E2.7974
G1 X53.406 Y79.791 E0.0350
G1 X97.387 Y35.810 E2.7974
G1 X98.164 Y35.810 E0.0350
G1 X54.183 Y79.791 E2.7974
G1 X54.961 Y79.791 E0.0350
G1 X98.942 Y35.810 E2.7974
G1 X99.720 Y35.810 E0.0350
G1 X55.739 Y79.791 E2.7974
G1 X56.517 Y79.791 E0.0350
G1 X100.498 Y35.810 E2.7974
G1 X101.276 Y35.810 E0.0350
G1 X57.295 Y79.791 E2.7974
G1 X58.072 Y79.791 E0.0350
G1 X102.053 Y35.810 E2.7974
G1 X102.831 Y35.810 E0.0350
G1 X58.850 Y79.791 E2.7974
G1 X59.628 Y79.791 E0.0350
G1 X103.609 Y35.810 E2.7974
G1 X104.387 Y35.810 E0.0350
G1 X60.406 Y79.791 E2.7974
G1 X61.184 Y79.791 E0.0350
G1 X105.165 Y35.810 E2.7974
G1 X105.943 Y35.810 E0.0350
G1 X61.962 Y79.791 E2.7974
G1 X62.739 Y79.791 E0.0350
G1 X106.720 Y35.810 E2.7974
G1 X107.498 Y35.810 E0.0350
G1 X63.517 Y79.791 E2.7974
G1 X64.295 Y79.791 E0.0350
G1 X108.276 Y35.810 E2.7974
G1 X109.054 Y35.810 E0.0350
